X: 29356
T: Newmarket
R: polka
M: 2/4
K: Dmajor
|:Ad df|ed Bd|Ad de|fe e2|
Ad- df|ed Bd|1 Ad de|fd d2:|2 Aa af|ed d2||
|:fa af|ed Bd|Ad de|fe e2|
fa- af|ed Bd|1 Ad de|fd d2:|2 Aa af|ed d2||

